!!!COM: Vivaldi, Antonio Lucio
!!!CDT: 1678/03/04-1741/08/28
!!!OPR: 12 Sonatas for Violin and Basso continuo
!!!OTL: Sonata in F major, op. @{OPS}, no. @{ONM} (@{SCT})
!!!OPS: 2
!!!ONM: 4
!!!OMV: 4. Corrente
!!!SCT: RV 20
!!!SCA: Antonio Vivaldi: Thematisch-systematisches Verzeichnis seiner Werke (Ryom-Verzeichnis)
!!!OMD: Presto
!!!key: F
**kern	**fb	**kern
*part2	*	*part1
*staff2	*	*staff1
*ICklav	*	*ICstr
*Icemba	*	*Ivioln
*I"Basso continuo	*	*I"Violino
*I'bc	*	*I'v
*>[A,A,B,B]	*>[A,A,B,B]	*>[A,A,B,B]
*>norep[A,B]	*>norep[A,B]	*>norep[A,B]
*>A	*>A	*>A
*clefF4	*	*clefG2
*k[b-]	*	*k[b-]
*F:	*	*F:
*M3/8	*	*M3/8
*MM120	*	*MM120
=1	=1	=1
4F\	.	(16ff\LL
.	.	16ee\
.	.	16ff\)
.	.	16cc\
8r	.	16a\
.	.	16cc\JJ
=2	=2	=2
4F\	.	(16ff\LL
.	.	16ee\
.	.	16ff\)
.	.	16cc\
8r	.	16a\
.	.	16cc\JJ
=3	=3	=3
8F/L	.	(16ff\LL
.	.	16ee\
8AA/	.	16ff\)
.	.	16aa\
8BB-y/J	.	16gg\
.	.	16ff\JJ
=4	=4	=4
8C\L	.	8.ee\Lt
8.c\	.	.
.	.	16dd\k
.	.	8cc\J
16B-y\Jk	.	.
=5	=5	=5
8A\L	6	(16ff\LL
.	.	16ee\
8AA\J	.	16ff\)
.	.	16cc\
8r	.	16a\
.	.	16cc\JJ
=6	=6	=6
8B-y\L	.	(16ff\LL
.	.	16ee\
8BB-y\J	.	16ff\)
.	.	16dd\
8r	.	16cc\
.	.	16b-y\JJ
=7	=7	=7
8Bn\L	6	(16gg\LL
.	.	16ff\
8BBn\J	.	16gg\)
.	.	16dd\
8r	.	16bn\
.	.	16dd\JJ
=8	=8	=8
8c\L	.	(16gg\LL
.	.	16ff\
8C\J	.	16gg\)
.	.	16ee\
8r	.	16dd\
.	.	16cc\JJ
!!LO:LB:g=original
=9	=9	=9
8c#X\L	6	(16aa\LL
.	.	16gg\
8C#X\J	.	16aa\)
.	.	16ee\
8r	.	16cc#X\
.	.	16ee\JJ
=10	=10	=10
8d\L	.	(16aa\LL
.	.	16gg\
8D\J	.	16aa\)
.	.	16ff\
8r	.	16ee\
.	.	16dd\JJ
=11	=11	=11
8G\	.	(16bb-y\LL
.	.	16gg\)
8r	.	(16aa\
.	.	16ff\)
8C/	.	(16gg\
.	.	16ee\JJ)
=12	=12	=12
8D\	.	(16ff\LL
.	.	16dd\)
8r	.	(16ee\
.	.	16cc\)
8E\	5	(16dd\
.	.	16b-y\JJ)
=13	=13	=13
8F\L	.	(16a\LL
.	.	16ff\)
8G\	.	(16b-y\
.	.	16ff\)
8A\J	.	(16cc\
.	.	16ff\JJ)
=14	=14	=14
8B-y\L	.	(16dd\LL
.	.	16ff\)
8A\	.	(16cc\
.	.	16ff\)
8G\J	.	(16b-y\
.	.	16ff\JJ)
=15	=15	=15
8F\L	.	(16a\LL
.	.	16ff\)
8G\	.	(16b-y\
.	.	16ff\)
8A\J	.	(16cc\
.	.	16ff\JJ)
=16	=16	=16
8B-y\L	.	(16dd\LL
.	.	16ff\)
8A\	.	(16cc\
.	.	16ff\)
8G\J	.	(16b-y\
.	.	16ff\JJ)
=17	=17	=17
8F\L	.	(16a\LL
.	.	16ff\)
8G\	.	(16b-y\
.	.	16ff\)
8A\J	.	(16cc\
.	.	16ff\JJ)
!!LO:LB:g=original
=18	=18	=18
8B-y\L	.	(16dd\LL
.	.	16ff\)
8A\	.	(16cc\
.	.	16ff\)
8G\J	.	(16b-y\
.	.	16ff\JJ)
=19	=19	=19
8F\	.	(16a\LL
.	.	16ff\)
8r	.	(16a\
.	.	16ff\)
8F\	.	(16a\
.	.	16ff\JJ)
=20	=20	=20
8G\L	7	(16b-y\LL
.	.	16ff\)
8c\	.	(16cc\
.	.	16ff\)
8C\J	.	(16cc\
.	.	16ee\JJ)
=21	=21	=21
4.F\	.	4.ff\
=22	=22	=22
4F\	.	(16ff\LL
.	.	16ee\
.	.	16ff\)
.	.	16cc\
8r	.	16a\
.	.	16cc\JJ
=23	=23	=23
4F\	.	(16ff\LL
.	.	16ee\
.	.	16ff\)
.	.	16cc\
8r	.	16a\
.	.	16cc\JJ
=24	=24	=24
8F\L	.	(16ff\LL
.	.	16ee\
8A\	.	16ff\)
.	.	16aa\
8B-y\J	.	16gg\
.	.	16ff\JJ
=25	=25	=25
8c\L	.	8.ee\Lt
8.C\	.	.
.	.	16dd\k
.	.	8cc\J
16BB-y\Jk	.	.
=26	=26	=26
4AA/	6	(16ff\LL
.	.	16gg\
.	.	16aa\)
.	.	16ff\
8EE/	6	16gg\
.	.	16ee\JJ
=27	=27	=27
8FF/L	6	(16dd\LL
.	.	16ee\
8DD/	.	16ff\)
.	.	16dd\
8FF/J	.	16ee\
.	.	16cc\JJ
!!LO:LB:g=original
=28	=28	=28
4GG/	n	(16bn\LL
.	.	16cc\
.	.	16dd\)
.	.	16bn\
8AA/	.	16cc\
.	.	16a\JJ
=29	=29	=29
8BBn/L	6	(16g/LL
.	.	16a/
8GG/	.	16bn/)
.	.	16g/
8BBn/J	.	16a/
.	.	16f/JJ
=30	=30	=30
8C/L	.	(16e/LL
.	.	16cc/)
8D/	.	(16f/
.	.	16cc/)
8E/J	.	(16g/
.	.	16cc/JJ)
=31	=31	=31
8F\L	.	(16a/LL
.	.	16cc/)
8E\	.	(16g/
.	.	16cc/)
8D\J	.	(16f/
.	.	16cc/JJ)
=32	=32	=32
8C\L	.	(16e/LL
.	.	16cc/)
8D\	.	(16f/
.	.	16cc/)
8E\J	.	(16g/
.	.	16cc/JJ)
=33	=33	=33
8F\L	.	(16a/LL
.	.	16cc/)
8E\	.	(16g/
.	.	16cc/)
8D\J	.	(16f/
.	.	16cc/JJ)
=34	=34	=34
8C\L	.	(16e/LL
.	.	16cc/)
8D\	.	(16f/
.	.	16cc/)
8E\J	.	(16g/
.	.	16cc/JJ)
=35	=35	=35
8F\L	.	(16a/LL
.	.	16cc/)
8E\	.	(16g/
.	.	16cc/)
8D\J	.	(16f/
.	.	16cc/JJ)
=36	=36	=36
8C/	.	(16e/LL
.	.	16cc/)
8r	.	(16e/
.	.	16cc/)
8C/	.	(16e/
.	.	16cc/JJ)
!!LO:LB:g=original
=37	=37	=37
8D/L	7	(16f/LL
.	.	16cc/)
8G/	n	(16g/
.	.	16cc/)
8GG/J	.	(16g/
.	.	16bn/JJ)
=38	=38	=38
4.C/	.	4.cc\
=39:|!|:	=39:|!|:	=39:|!|:
*>B	*>B	*>B
4C/	.	(16cc/LL
.	.	16bn/
.	.	16cc/)
.	.	16g/
8r	.	16e/
.	.	16g/JJ
=40	=40	=40
4C/	.	(16cc/LL
.	.	16bn/
.	.	16cc/)
.	.	16g/
8r	.	16e/
.	.	16g/JJ
=41	=41	=41
8C/L	.	(16cc\LL
.	.	16bn\
8EE/	.	16cc\)
.	.	16ee\
8FF/J	.	16dd\
.	.	16cc\JJ
=42	=42	=42
8GG\L	n	8.bn/Lt
8.G\	.	.
.	.	16a/k
.	.	8g/J
16F\Jk	.	.
=43	=43	=43
8E\L	6	(16cc\LL
.	.	16dd\
8C\J	.	16ee\)
.	.	16cc\
8r	.	16dd\
.	.	16bn\JJ
=44	=44	=44
4F\	.	(16a\LL
.	.	16bn\
.	.	16cc\)
.	.	16dd\
8r	.	16ee\
.	.	16ff\JJ
=45	=45	=45
8F\L	6	(16dd\LL
.	.	16ee\
8D\J	.	16ff\)
.	.	16dd\
8r	.	16ee\
.	.	16cc\JJ
!!LO:LB:g=original
=46	=46	=46
4G\	n	(16bn\LL
.	.	16cc\
.	.	16dd\)
.	.	16ee\
8r	.	16ff\
.	.	16gg\JJ
=47	=47	=47
8G\L	6	(16ee\LL
.	.	16ff\
8E\J	.	16gg\)
.	.	16ee\
8r	.	16ff\
.	.	16dd\JJ
=48	=48	=48
4A\	.	(16cc\LL
.	.	16dd\
.	.	16ee\)
.	.	16ff\
8r	.	16gg\
.	.	16aa\JJ
=49	=49	=49
8A\L	6	(16ff\LL
.	.	16gg\
8F\J	.	16aa\)
.	.	16ff\
8r	.	16gg\
.	.	16ee\JJ
=50	=50	=50
4B-y\	.	(16dd\LL
.	.	16ee\
.	.	16ff\)
.	.	16gg\
8G\	.	16aa\
.	.	16bb-y\JJ
=51	=51	=51
4A\	#	8cc#X/L
.	.	(8A/
8AA/	.	8c#X/J
=52	=52	=52
8.C#X/L	6	8e\L
.	.	8a\
16BBn/k	.	.
8AA/J	.	8gg\J)
=53	=53	=53
4D\	.	8ff/L
.	.	(8d/
8D\	.	8f/J
=54	=54	=54
8.F\L	6	8a\L
.	.	8dd\
16E\k	.	.
8D\J	.	8ff\J)
=55	=55	=55
8G\L	6-r	(8ee-X\L
8A\	#	8cc#y\)
8B-y\J	.	8dd\J
=56	=56	=56
8G\L	6 5	8f/
8A\	5 4	4e/t
8AA\J	#	.
!!LO:PB:g=original
=57	=57	=57
4.D\	.	(16d/LL
.	.	16e/
.	.	16f/)
.	.	16e/
.	.	16f/
.	.	16d/JJ
=58	=58	=58
8F#X\L	6	8dd\
8D\	.	4ccn\T
8F#X\J	.	.
=59	=59	=59
4G\	n	(16bn\LL
.	.	16cc\
.	.	16dd\)
.	.	16bn\
8r	.	16cc\
.	.	16a\JJ
=60	=60	=60
8BBn/L	6	8g/
8GG/	.	4f/T
8BBn/J	.	.
=61	=61	=61
4C/	.	(16e/LL
.	.	16f/
.	.	16g/)
.	.	16e/
8r	.	16f/
.	.	16d/JJ
=62	=62	=62
8E\L	6	8c/
8C\	.	4B-y/T
8E\J	.	.
=63	=63	=63
4F\	.	(16A/LL
.	.	16B-y/
.	.	16c/)
.	.	16d/
8AA/	.	16e/
.	.	16f/JJ
=64	=64	=64
8.BB-y/L	.	(16g/LL
.	.	16a/
.	.	16b-y/)
16AA/k	.	16cc/
8GG/J	6	16dd/
.	.	16ee/JJ
=65	=65	=65
4FF/	.	(16ff\LL
.	.	16ee\
.	.	16ff\)
.	.	16cc\
8r	.	16a\
.	.	16cc\JJ
=66	=66	=66
4F\	.	(16ff\LL
.	.	16ee\
.	.	16ff\)
.	.	16cc\
8r	.	16a\
.	.	16cc\JJ
=67	=67	=67
8F/L	.	(16ff\LL
.	.	16ee\
8AA/	.	16ff\)
.	.	16aa\
8BB-y/J	.	16gg\
.	.	16ff\JJ
!!LO:LB:g=original
=68	=68	=68
8C\L	.	8.ee\Lt
8.c\	.	.
.	.	16dd\k
.	.	8cc\J
16B-y\Jk	.	.
=69	=69	=69
8A\L	6	(16cc/LL
.	.	16b-y/
8AA\J	.	16cc/)
.	.	16a/
8r	.	16g/
.	.	16f/JJ
=70	=70	=70
8B-y\L	.	(16dd\LL
.	.	16cc\
8BB-y\J	.	16dd\)
.	.	16b-y\
8r	.	16a\
.	.	16g\JJ
=71	=71	=71
8c\L	.	(16ee\LL
.	.	16dd\
8C\J	.	16ee\)
.	.	16cc\
8r	.	16b-y\
.	.	16a\JJ
=72	=72	=72
8d\L	.	(16ff\LL
.	.	16ee\
8D\J	.	16ff\)
.	.	16dd\
8r	.	16cc\
.	.	16b-y\JJ
=73	=73	=73
8e\L	6	(16gg\LL
.	.	16ff\
8E\J	.	16gg\)
.	.	16ee\
8r	.	16dd\
.	.	16cc\JJ
=74	=74	=74
8f\L	.	(16aa\LL
.	.	16gg\
8F\J	.	16aa\)
.	.	16ff\
8r	.	16ee\
.	.	16dd\JJ
=75	=75	=75
8G\	.	(16bb-y\LL
.	.	16gg\)
8r	.	(16aa\
.	.	16ff\)
8C/	.	(16gg\
.	.	16ee\JJ)
=76	=76	=76
8D\	.	(16ff\LL
.	.	16dd\)
8r	.	(16ee\
.	.	16cc\)
8E\	5	(16dd\
.	.	16b-y\JJ)
=77	=77	=77
8F\L	.	(16a\LL
.	.	16ff\)
8G\	.	(16b-y\
.	.	16ff\)
8A\J	.	(16cc\
.	.	16ff\JJ)
!!LO:LB:g=original
=78	=78	=78
8B-y\L	.	(16dd\LL
.	.	16ff\)
8A\	.	(16cc\
.	.	16ff\)
8G\J	.	(16b-y\
.	.	16ff\JJ)
=79	=79	=79
8F\L	.	(16a\LL
.	.	16ff\)
8G\	.	(16b-y\
.	.	16ff\)
8A\J	.	(16cc\
.	.	16ff\JJ)
=80	=80	=80
8B-y\L	.	(16dd\LL
.	.	16ff\)
8A\	.	(16cc\
.	.	16ff\)
8G\J	.	(16b-y\
.	.	16ff\JJ)
=81	=81	=81
8F\L	.	(16a\LL
.	.	16ff\)
8G\	.	(16b-y\
.	.	16ff\)
8A\J	.	(16cc\
.	.	16ff\JJ)
=82	=82	=82
8B-y\L	.	(16dd\LL
.	.	16ff\)
8A\	.	(16cc\
.	.	16ff\)
8G\J	.	(16b-y\
.	.	16ff\JJ)
=83	=83	=83
8F\	.	(16a\LL
.	.	16ff\)
8r	.	(16a\
.	.	16ff\)
8F\	.	(16a\
.	.	16ff\JJ)
=84	=84	=84
8G\L	7	(16b-y\LL
.	.	16ff\)
8c\	.	(16cc\
.	.	16ff\)
8C\J	.	(16cc\
.	.	16ee\JJ)
=85	=85	=85
4F\	.	(16ff\LL
.	.	16ee\
.	.	16dd\)
.	.	16cc\
8r	.	16b-y\
.	.	16a\JJ
=86	=86	=86
4F\	.	(16dd/LL
.	.	16cc/
.	.	16b-y/)
.	.	16a/
8r	.	16g/
.	.	16f/JJ
!!LO:LB:g=original
=87	=87	=87
4E\	6	(16g/LL
.	.	16f/
.	.	16e/)
.	.	16d/
8r	.	16c/
.	.	16B-y/JJ
=88	=88	=88
8F\L	.	(16A/LL
.	.	16f/)
8G\	.	(16B-y/
.	.	16f/)
8A\J	.	(16c/
.	.	16f/JJ)
=89	=89	=89
8B-y\L	.	(16d/LL
.	.	16f/)
8A\	.	(16c/
.	.	16f/)
8G\J	.	(16B-y/
.	.	16f/JJ)
=90	=90	=90
8F\L	.	(16A/LL
.	.	16f/)
8G\	.	(16B-y/
.	.	16f/)
8A\J	.	(16c/
.	.	16f/JJ)
=91	=91	=91
8B-y\L	.	(16d/LL
.	.	16f/)
8A\	.	(16c/
.	.	16f/)
8G\J	.	(16B-y/
.	.	16f/JJ)
=92	=92	=92
8F\L	.	(16A/LL
.	.	16f/)
8G\	.	(16B-y/
.	.	16f/)
8A\J	.	(16c/
.	.	16f/JJ)
=93	=93	=93
8B-y\L	.	(16d/LL
.	.	16f/)
8A\	.	(16c/
.	.	16f/)
8G\J	.	(16B-y/
.	.	16f/JJ)
=94	=94	=94
8F\	.	(16A/LL
.	.	16f/)
8r	.	(16A/
.	.	16f/)
8F\	.	(16A/
.	.	16f/JJ)
=95	=95	=95
8G\L	7	(16B-y/LL
.	.	16f/)
8c\	.	(16c/
.	.	16f/)
8C\J	.	(16c/
.	.	16e/JJ)
=96	=96	=96
4.F\;	.	4.f/;
=:|!	=:|!	=:|!
*-	*-	*-
!!!SMS: RV 20 / Estienne Roger, Amsterdam [facs.]
!!!ENC: Fran Bennion; rev. 04/21 E. Correia
!!!END: 2004/11/26
!!!ONB: Converted from MuseData with musedata2hum on Sat May 11 12:07:52 2024
!!!YEM: (C) 2004, 2004 Center for Computer Assisted Research in the Humanities.
!!!system-decoration: [(s1,s2)]
!!!URL-info: https://wiki.ccarh.org/wiki/MuseData:_Antonio_Vivaldi#Op._2:_Sonate_a_violino_e_basso_per_il_cembalo
!!!URL-pdf: https://pdf.musedata.org/vivaldi-op02-no04.pdf#page=4 MuseData edition
!!!URL-pdf: http://conquest.imslp.info/files/imglnks/usimg/b/b7/IMSLP99075-PMLP183164-Vivaldi_-_Sonatas_Op2.pdf#page=16 Estienne Roger Amsterdam: Estienne Roger, No.2, n.d.[1711].
!!!URL-youtube: https://www.youtube.com/watch?v=SiijZmW9jKM&t=1351s L'Arte dell'Arco
!!!title: @{OTL}, mov. @{OMV}
!!!filter-chint: chint -mid
!!!EEV: 2024/05/11
!!!source-file: https://bitbucket.org/musedata/vivaldi/src/master/roger/op2/no04/stage2/04/01
!!!source-file: https://bitbucket.org/musedata/vivaldi/src/master/roger/op2/no04/stage2/04/02
